symbols/web/vertical_split/materialsymbolsoutlined/vertical_split_wght500_48px.svg

<svg xmlns="http://www.w3.org/2000/svg" height="48" width="48"><path d="M5.15 26.5v3.45h16.7V26.5Zm0 8.5v3.4h16.7V35Zm0-16.95v3.45h16.7v-3.45Zm0-8.45V13h16.7V9.6ZM30.6 13v22Zm-3.4-3.4h15.7v28.8H27.2Zm3.4 3.4v22h8.9V13Z"/></svg>

<svg xmlns="http://www.w3.org/2000/svg" height="48" width="48"><path d="M5.15 26.5V29.95H21.85V26.5ZM5.15 35V38.4H21.85V35ZM5.15 18.05V21.5H21.85V18.05ZM5.15 9.6V13H21.85V9.6ZM30.6 13V35ZM27.2 9.6H42.9V38.4H27.2ZM30.6 13V35H39.5V13Z"/></svg>
